X:419
T: Yanjing xiaochang
N: C2037
O: China,Anhui Suxian
S: III, 522]
R: Xiaodiao]
M: 2/4
L: 1/16
K: C
c3AG4 | c3AG4 | c4c2A2 | G2GAc4 |
c3de2e2 | d2e2c4 | d2c2A2G2 | A2cAG4 |
G2GAc4 | cde2d4 |
d2c2A2G2 | A2cAG4

@@@ Tune index: 6974
